X:1
T: The Australian Homestead
C:
R:Reel
I:speed 232
Q:232
K:C
M:4/4
L:1/8
G4 A2G2|E2G4cd|e2e2 d2c2|A6cd|e2e2 d2e2|c2G2 G2G2|A2d2 d2e2|d6z2|
G4 A2G2|E2G4cd|e2e2 d2c2|A6cd|e2e2 d2e2|c2G2 G2G2|A2c2 =B2d2|c6z2|
K:D
A4 B2A2|F2A4de|f2f2 e2d2|B6de|f2f2 e2f2|d2A2 A2A2|B2e2 e2f2|e6z2|
A4 B2A2|F2A4de|f2f2 e2d2|B6de|f2f2 e2f2|d2A2 A2A2|B2d2 c2e2|d6z2||
